X:1
T:Title
%%score ( 1 2 ) ( 3 4 )
L:1/8
Q:1/4=105
M:4/4
K:F
V:1 treble nm="Choir Aahs, Staff"
V:2 treble 
V:3 bass nm="Choir Aahs, Staff-1"
V:4 bass 
V:1
 [FA]2 [EG]2 F2 [EG]2 | [FA]2 [FB]2 [_Ec]4 | [Dd]2 [Ec]2 B-[GB]AG | F2 z2 z4 | %4
w: By~Melchior~Vulpius * * *||||
 [FA]2 [Gc]2 [FB]2 [FA]2 | [EG]2 [DF]2 [^CE]4 | [DF]2 G2 AB [Ac]2 | A2 z2 z4 | .A2 .A2 z2 B2 | %9
w: |||||
 [FA]2 [EG]2 [FA]4 | z4 .A2 z2 | c2 =B2 [Ec]4 | [Cc]2 [CA]2 d-[Ed-]dc | B-[EB] [FA]2 [EG]4 | %14
w: |||||
 [FA]2 [Gc]2 [FB]2 [FA]2 | G2- [EG]2 F4 |] %16
w: ||
V:2
 x8 | x8 | z4 .F2 F2 | G2- [EG]2 [CF]4 | x8 | x8 | z4 F2 z2 | B2- [GB-][FB] [EA]4 | %8
 F-[FG]D-[DB] [Cc]2 FG | x8 | [DG]2 [CG]2 F-[F=B] [Gc]2 | D4 z4 | z4 .D2 F2 | .F2 z2 z4 | x8 | %15
 F2 z2 z4 |] %16
V:3
 [F,C]2 [C,C]2 [A,,C]2 [C,C]2 | [F,C]2 [D,F,]2 [A,,F,]4 | z4 z2 .A,2 | C2 B,2 [F,A,]4 | %4
 [F,C]2 [E,C]2 D-[E,D] [F,C]2 | [^C,B,]2 [D,A,]2 [A,,A,]4 | [D,A,]2 [E,C]2 [F,C]2 [^F,D]2 | %7
 DFED [A,^C]4 | A,2 F2 z2 D2 | [F,C]2 [C,C]2 [F,C]4 | z4 .C2 z2 | [F,A,]2 G,2 [C,G,]4 | %12
 z4 .F,2 z2 | [G,,B,]2 [F,,C]2 [C,C]4 | [F,C]2 [E,C]2 [D,D]2 [C,D]2 | [=B,,D]2 CB, [F,A,]4 |] %16
V:4
 x8 | x8 | [B,,B,]2 [C,A,]2 [D,A,][E,G,]F,-[F,B,] | C,4 z4 | z4 .D,2 z2 | x8 | x8 | G,4 z4 | %8
 D,E,F,G, [A,E]2 D,E, | x8 | [F,=B,]2 [E,C]2 D,-[D,D] [C,E]2 | x8 | %12
 [_E,G,]2 F,2 B,,-[B,,G,] [A,,A,]2 | x8 | x8 | z2 C,2 z4 |] %16

